Modules/BetterCms.Module.Root/Scss/assets/icons/editor-block-quote-active.svg

<svg height="13" width="15" xmlns="http://www.w3.org/2000/svg" viewBox="0 0 15 13"><path fill="#0d7ce7" fill-rule="evenodd" d="m11.17 0c-1.59 0-2.88 1.32-2.88 2.95 0 1.64 1.29 2.96 2.88 2.96 2.87 0 .96 5.71-2.88 5.71v1.38c6.85 0 9.53-13 2.88-13m-8.29 0c-1.59 0-2.88 1.32-2.88 2.95 0 1.64 1.29 2.96 2.88 2.96 2.87 0 .96 5.71-2.88 5.71v1.38c6.85 0 9.53-13 2.88-13"/></svg>

<?xml version="1.0" encoding="utf-8"?>
<!-- Generator: Avocode 2.4.5 - http://avocode.com -->
<svg height="13" width="15" xmlns:xlink="http://www.w3.org/1999/xlink" xmlns="http://www.w3.org/2000/svg" viewBox="0 0 15 13">
    <path fill="#0d7ce7" fill-rule="evenodd" d="M 11.17 0 C 9.58 0 8.29 1.32 8.29 2.95 C 8.29 4.59 9.58 5.91 11.17 5.91 C 14.04 5.91 12.13 11.62 8.29 11.62 L 8.29 13 C 15.14 13 17.82 0 11.17 0 M 2.88 0 C 1.29 0 0 1.32 0 2.95 C 0 4.59 1.29 5.91 2.88 5.91 C 5.75 5.91 3.84 11.62 0 11.62 L 0 13 C 6.85 13 9.53 0 2.88 0" />
</svg>
